!!!ONB: MCCC : IFS0515_04 : Extracted Monophonic Melody
!!!COM: Schubert, Franz
!!!OPR: 6 Moments musicaux
!!!OMV: 4
!!!SCT: D.780 (Op.94)
!!!ODT: 1823///
**kern
*staff1
*clefG2
*k[f#c#g#d#]
*E:
*M2/4
8g#
=2
16e
16c#
16e
16g#
16e
16c#
16e
16a
=3
16d#
16B#
16d#
16a
16d#
16B#
16d#
16g#
=4
16g#
16e
16g#
16ee
16g#
16e
16g#
16cc#
=5
16a
16g#
16f#
16cc#
16b#
16f#
16g#
16b#
=6
16cc#
16e
16g#
16cc#
16ee
16g#
16ee
16gg#
=7
16ee
16a
16ee
16gg#
16dd
16ff#
16cc#
16ee
=8
16b#
16dd#
16cc#
16ee
16dd#
16ff#
16b#
16dd#
=9
16ee
16cc#
16b
16a
16g#
16f#
16e
16d#
=10
16e
16c#
16e
16g#
16e
16c#
16e
16a
=11
16d#
16B
16d#
16a
16d#
16B
16d#
16g#
=12
16g#
16c#
16g#
16cc#
16f#
16d#
16f#
16cc#
=13
16g#
16e
16g#
16cc#
16g#
16e
16g#
16b
=14
16g
16e
16g
16a#
16ee
16a#
16ee
16gg
=15
16dd#
16gg
16dd#
16ff#
16a
16ee
16a
16dd#
=16
16a
16ff#
16g#
16ee
16e
16cc#
16c#
16a
=17
16B
16g#
16e
16b
16B
16a
16d#
16b
=18
16a
16a[
16a]
16a
16g#
16e
16g#
16a
=19
16b
16g#
16b
16gg#
16b
16ff#
16b#
16ee
=20
16cc#
16e
16cc#
16ee
16b
16dd#
16a
16cc#
=21
16g#
16B
16g#
16b
16e
16A#
16e
16cc#
=22
16f#
16A
16f#
16b
16f#
16A
16f#
16b
=23
16e
16G#
16e
16g#
4r
=24
16d#
16A
16d#
16b
4r
=25
16e
16G#
16e
16g#
16g#
16b
16ee
16gg#
=26
16gg#[
16gg#]
16ee[
16ee]
16dd#[
16dd#]
16dd[
16dd]
=27
16cc#
16c#
16a
16cc#
4r
=28
16g#
16d
16g#
16ee
4r
=29
16a
16d#
16a
16cc#
16cc#
16ee
16aa
16ccc#
=30
16ccc#
16cc#
16aa
16cc#
16gg#
16ee
16ff#
16dd#
=31
16ee
16g#
16f#
16g#
16e
16g#
16d#
16g#
=32
16e
16c#
16e
16g#
16e
16c#
16e
16a
=33
16d#
16B#
16d#
16a
16d#
16B#
16d#
16g#
=34
16g#
16e
16g#
16ee
16g#
16e
16g#
16cc#
=35
16a
16g#
16f#
16cc#
16b#
16d#
16g#
16b#
=36
16cc#
16g#
16cc#
16ee
16ee
16g#
16ee
16gg#
=37
16ee
16a
16ee
16gg#
16dd
16ff#
16cc#
16ee
=38
16b#
16dd#
16cc#
16ee
16dd#
16ff#
16b#
16dd#
=39
16ee
16cc#
16b
16a
16g#
16f#
16e
16d#
=40
16e
16c#
16e
16g#
16e
16c#
16e
16a
=41
16d#
16B
16d#
16a
16d#
16B
16d#
16g#
=42
16g#
16c#
16g#
16cc#
16f#
16d#
16f#
16cc#
=43
16g#
16e
16g#
16cc#
16g#
16e
16g#
16b
=44
16g
16e
16g
16a#
16ee
16a#
16ee
16gg
=45
16dd#
16gg
16dd#
16ff#
16a
16ee
16a
16dd#
=46
16a
16ff#
16g#
16ee
16e
16cc#
16c#
16a
=47
16B
16g#
16e
16b
16B
16a
16d#
16b
=48
4a
4r
=49
16g#
16e
16g#
16ee
16g#
16dd#
16g#
16cc#
=50
16a
16c#
16a
16cc#
16g#
16b
16f#
16a
=51
16e
16G#
16e
16g#
16c#
16G
16c#
16a
=52
16d#
16F#
16d#
16g#
16d#
16F#
16d#
16g#
=53
16c#
16E
16c#
16e
4r
=54
16c#
16E
16c#
16e
4r
=55
16d
16A
16d
16f#
16f#
16a
16dd
16ff#
=56
8r
8ff#
8ee
8dd#
=57
16cc#
16e
16cc#
16ee
4r
=58
16cc#
16e
16cc#
16ee
4r
=59
16dd
16a
16dd
16ff#
16aa
16ff#
16dd
16a
=60
16g#
16ee
16e
16cc#
16f#
16dd#
16d#
16b#
=61
8r
16e
16g#
16f#
16g#
16d#
16g#
=62
2r
=63
16e#
8.g#
8a#
8g#
=64
16e#
8.g#
8cc#
8g#
=65
16g#
8.d
8f#
8dd#
=66
16ee#
8.dd#
8cc#
8g#
=67
16e#
8.g#
8a#
8g#
=68
16e#
8.g#
8cc#
8g#
=69
16g#
16d
8f#[
16f#]
16dd#
16ee#
16dd#
=70
16cc#
16dd#
4.cc#
=71
2r
=72
2r
=73
16d#
8.a
8g#
8g#
=74
16a
16b
4.g#
=75
16e#
8.g#
8a#
8g#
=76
16e#
8.g#
8cc#
8g#
=77
16g#
8.d
8f#
8dd#
=78
16ee#
8.dd#
8cc#
8g#
=79
16e#
8.g#
8a#
8g#
=80
16e#
8.g#
8cc#
8g#
=81
16g#
16d
8f#[
16f#]
16dd#
16ee#
16dd#
=82
16cc#
16dd#
4.cc#
=83
2r
=84
2r
=85
16d#
8.a
8g#
8g#
=86
16a
16b
4.g#
=87
16g#
8.a
8f#
8g#
=88
16g#
8.a
8f#
8g#
=89
16f#
8.g#
8e
8f#
=90
16d#
8.f#
8e
8ee
=91
16ee#
8.gg#
8ff#
8a
=92
16g#
8.a
8b
8ee
=93
16ee#
8.gg#
8ff#
8dd#
=94
16ee
8.cc#
8b
8g#
=95
16g#
8.a
8f#
8g#
=96
16g#
8.a
8f#
8g#
=97
16f#
8.g#
8e
16d#
16c#
=98
16B#
8.d#
8c#
8cc#
=99
16dd
8.ee#
8dd#
8f#
=100
16e#
8.f#
8g#
8cc#
=101
16dd
8.ee#
8dd#
8ee#
=102
16ee#
16gg#
4.ff#
=103
16e#
8.g#
8a#
8g#
=104
16e#
8.g#
8cc#
8g#
=105
16g#
8.d
8f#
8dd#
=106
16ee#
8.dd#
8cc#
8g#
=107
16e#
8.g#
8a#
8g#
=108
16e#
8.g#
8cc#
8g#
=109
16g#
16d
8f#[
16f#]
16dd#
16ee#
16dd#
=110
16cc#
16dd#
4.cc#
=111
2r
=112
2r
=113
16B#
8.f#
8e#
8e#
=114
16f#
8.g#
8e#
8g#
=115
16g#
8.a
8f#
8g#
=116
16g#
8.a
8f#
8g#
=117
16f#
8.g#
8e
8f#
=118
16d#
8.f#
8e
8ee
=119
16ee#
8.gg#
8ff#
8a
=120
16g#
8.a
8b
8ee
=121
16ee#
8.gg#
8ff#
8dd#
=122
16ee
8.cc#
8b
8g#
=123
16g#
8.a
8f#
8g#
=124
16g#
8.a
8f#
8g#
=125
16f#
8.g#
8e
16d#
16c#
=126
16B#
8.d#
8c#
8cc#
=127
16dd
8.ee#
8dd#
8f#
=128
16e#
8.f#
8g#
8cc#
=129
16dd
8.ee#
8dd#
8ee#
=130
16ee#
16gg#
4.ff#
=131
16e#
8.g#
8a#
8g#
=132
16e#
8.g#
8cc#
8g#
=133
16g#
8.d
8f#
8dd#
=134
16ee#
8.dd#
8cc#
8g#
=135
16e#
8.g#
8a#
8g#
=136
16e#
8.g#
8cc#
8g#
=137
16g#
16d
8f#[
16f#]
16dd#
16ee#
16dd#
=138
16cc#
16dd#
4.cc#
=139
2r
=140
2r
=141
16B#
8.f#
8e#
8e#
=142
16f#
8.g#
8e#
8g#
=143
16e
16c#
16e
16g#
16e
16c#
16e
16a
=144
16d#
16B#
16d#
16a
16d#
16B#
16d#
16g#
=145
16g#
16e
16g#
16ee
16g#
16e
16g#
16cc#
=146
16a
16g#
16f#
16cc#
16b#
16f#
16g#
16b#
=147
16cc#
16e
16g#
16cc#
16ee
16g#
16ee
16gg#
=148
16ee
16a
16ee
16gg#
16dd
16ff#
16cc#
16ee
=149
16b#
16dd#
16cc#
16ee
16dd#
16ff#
16b#
16dd#
=150
16ee
16cc#
16b
16a
16g#
16f#
16e
16d#
=151
16e
16c#
16e
16g#
16e
16c#
16e
16a
=152
16d#
16B
16d#
16a
16d#
16B
16d#
16g#
=153
16g#
16c#
16g#
16cc#
16f#
16d#
16f#
16cc#
=154
16g#
16e
16g#
16cc#
16g#
16e
16g#
16b
=155
16g
16e
16g
16a#
16ee
16a#
16ee
16gg
=156
16dd#
16gg
16dd#
16ff#
16a
16ee
16a
16dd#
=157
16a
16ff#
16g#
16ee
16e
16cc#
16c#
16a
=158
16B
16g#
16e
16b
16B
16a
16d#
16b
=159
4a
4r
=160
16b
16g#
16b
16gg#
16b
16ff#
16b#
16ee
=161
16cc#
16e
16cc#
16ee
16b
16dd#
16a
16cc#
=162
16g#
16B
16g#
16b
16e
16A#
16e
16cc#
=163
16f#
16A
16f#
16b
16f#
16A
16f#
16b
=164
16e
16G#
16e
16g#
4r
=165
16d#
16A
16d#
16b
4r
=166
16e
16G#
16e
16g#
16g#
16b
16ee
16gg#
=167
16gg#[
16gg#]
16ee[
16ee]
16dd#[
16dd#]
16dd[
16dd]
=168
16cc#
16c#
16a
16cc#
4r
=169
16g#
16d
16g#
16ee
4r
=170
4r
8r
16aa
16ccc#
=171
16ccc#
16cc#
16aa
16cc#
16gg#
16ee
16ff#
16dd#
=172
16ee
16g#
16f#
16g#
16e
16g#
16d#
16g#
=173
16e
16c#
16e
16g#
16e
16c#
16e
16a
=174
16d#
16B#
16d#
16a
16d#
16B#
16d#
16g#
=175
16g#
16e
16g#
16ee
16g#
16e
16g#
16cc#
=176
16a
16g#
16f#
16cc#
16b#
16d#
16g#
16b#
=177
16cc#
16g#
16cc#
16ee
16ee
16g#
16ee
16gg#
=178
16ee
16a
16ee
16gg#
16dd
16ff#
16cc#
16ee
=179
16b#
16dd#
16cc#
16ee
16dd#
16ff#
16b#
16dd#
=180
16ee
16cc#
16b
16a
16g#
16f#
16e
16d#
=181
16e
16c#
16e
16g#
16e
16c#
16e
16a
=182
16d#
16B
16d#
16a
16d#
16B
16d#
16g#
=183
16g#
16c#
16g#
16cc#
16f#
16d#
16f#
16cc#
=184
16g#
16e
16g#
16cc#
16g#
16e
16g#
16b
=185
16g
16e
16g
16a#
16ee
16a#
16ee
16gg
=186
16dd#
16gg
16dd#
16ff#
16a
16ee
16a
16dd#
=187
16a
16ff#
16g#
16ee
16e
16cc#
16c#
16a
=188
16B
16g#
16e
16b
16B
16a
16d#
16b
=189
4a
4r
=190
16g#
16e
16g#
16ee
16g#
16dd#
16g#
16cc#
=191
16a
16c#
16a
16cc#
16g#
16b
16f#
16a
=192
16e
16G#
16e
16g#
16c#
16G
16c#
16a
=193
16d#
16F#
16d#
16g#
16d#
16F#
16d#
16g#
=194
16c#
16E
16c#
16e
4r
=195
16c#
16E
16c#
16e
4r
=196
16d
16A
16d
16f#
16f#
16a
16dd
16ff#
=197
8r
8ff#
8ee
8dd#
=198
16cc#
16e
16cc#
16ee
4r
=199
16cc#
16e
16cc#
16ee
4r
=200
16dd
16a
16dd
16ff#
16aa
16ff#
16dd
16a
=201
16g#
16ee
16e
16cc#
16f#
16dd#
16d#
16b#
=202
8r
16e
16g#
16f#
16g#
16d#
16g#
=203
2r
=204
16e#
8.g#
8a#
8g#
=205
16e#
8.g#
8cc#
8g#
=206
4g#
4r
=207
2r
=208
2r
==
*-
